X: 1443
T: Ne Semtten Cânım Bu Geliş
C: Kemânî Rıza Efendi
O: Turkey
F: http://compmusic.upf.edu/node/140
N: beyati--sarki--aksak--ne_semtden--kemani_riza_efendi
N: makam= beyati
N: form= sarki
N: usul= aksak = 9/8
M: 9/8
L: 1/16
K: C _2/4B   
Q: 1/4=162
%%MIDI tuningsystem comma53
fefg e3d dcdf edcB AG | AB cdeg feed dcd2 e2f2  | 
w:  ARANAĞME  |   | 
fefg e3d dcdf edcB AG | AB cde2 dccB BAA2 {B}AGBc  | 
w:   |   | 
d4 c2d2 d2{f}ed d2d2 e2 | dc BAGA Bcde ced4ce  | 
w:  *  Ne  semt ten  *  *  *  câ  |  nım  *  *  *  bu  *  *  *  ge *  *  *  liş   SAZ  | 
d4 c2d2 d2{f}ed d2d2 e2 | dc BAGA Bcde ced4ce  | 
w:  *  Ne  semt ten  *  *  *  câ  |  nım  *  *  *  bu  *  *  *  ge *  *  *  liş   SAZ  | 
d4 c2d2 d3/2f/ed dcBd c2 | d4ag fedc BAB2 c2cB  | 
w:  *  Bi ze  mi  *  *  *  yok  |  sa  gös *  *  *  te *  *  *  riş    | 
f4 z2df edcB cBA4 | GA Bcde2ddc2BcB A2e2  | 
w:  ah  Bi ze  mi  *  *  *  yok  |  sa  *  *  *  *  *  *  gös *  *  te  | 
d2cB A4 ag2^3/4f gfed fa | g4^3/4f2 g2_ba g2f2 g4  | 
w:  riş   *  *  *  SAZ  |  *  Câ nı ma  *  *  geç  | 
g2{a}g^3/4f f2{g}f_2/4e d2de f2gf ed | \
w:  ti  *  *  *  bu  *  *  *  re viş  *  ah    | 
c4^3/4f2 g2_ba g2f2 g4  | 
w:  *  Câ nı ma  *  *  geç  | 
g2{a}g^3/4f f2{g}f_2/4e d2de f2gf ed | \
w:  ti  *  *  *  bu  *  *  *  re viş  *  ah    | 
c4c2 d2d3/2f/ eddc Bdc2  | 
w:  *  Ke rem_ et  *  *  *  bir   | 
d4 agfe dcBA B2c2 cB | f4z2 dfed cBcB A4  | 
w:  lah za  *  *  *  i *  *  *  liş    |  ah  Ke rem_ et  *  *  *  bir   | 
GABc de2d dc2B cBA2 e2 | d2 cBA4ed cBA4z2  | 
w:  lah *  *  *  *  *  *  za  *  *  i  |  liş   *  *  *  SAZ  | 
fefg e3d dcdf edcB AG | AB cdeg feed dcd2 e2f2  | 
w:  ARANAĞME  |   | 
fefg e3d dcdf edcB AG | AB cde2 dccB BAA2 {B}AGBc  | 
w:   |   | 
d4 c2d2 d2{f}ed d2d2 e2 | dc BAGA Bcde ced4ce  | 
w:  *  Ne  semt ten  *  *  *  câ  |  nım  *  *  *  bu  *  *  *  ge *  *  *  liş   SAZ  | 
d4 c2d2 d2{f}ed d2d2 e2 | dc BAGA Bcde ced4ce  | 
w:  *  Ne  semt ten  *  *  *  câ  |  nım  *  *  *  bu  *  *  *  ge *  *  *  liş   SAZ  | 
d4 c2d2 d3/2f/ed dcBd c2 | d4ag fedc BAB2 c2cB  | 
w:  *  Bi ze  mi  *  *  *  yok  |  sa  gös *  *  *  te *  *  *  riş    | 
f4 z2df edcB cBA4 | GA Bcde2ddc2BcB A2e2  | 
w:  ah  Bi ze  mi  *  *  *  yok  |  sa  *  *  *  *  *  *  gös *  *  te  | 
d2cB A4 ag2^3/4f gfed fa | g4^3/4f2 g2_ba g2f2 g4  | 
w:  riş   *  *  *  SAZ  |  *  Câ nı ma  *  *  geç  | 
g2{a}g^3/4f f2{g}f_2/4e d2de f2gf ed | \
w:  ti  *  *  *  bu  *  *  *  re viş  *  ah    | 
c4^3/4f2 g2_ba g2f2 g4  | 
w:  *  Câ nı ma  *  *  geç  | 
g2{a}g^3/4f f2{g}f_2/4e d2de f2gf ed | \
w:  ti  *  *  *  bu  *  *  *  re viş  *  ah    | 
c4c2 d2d3/2f/ eddc Bdc2  | 
w:  *  Ke rem_ et  *  *  *  bir   | 
d4 agfe dcBA B2c2 cB | f4z2 dfed cBcB A4  | 
w:  lah za  *  *  *  i *  *  *  liş    |  ah  Ke rem_ et  *  *  *  bir   | 
GABc de2d dc2B cBA2 e2 | d2 cBA4ed cBA4z2  | 
w:  lah *  *  *  *  *  *  za  *  *  i  |  liş   *  *  *  SAZ  | 
|


